packages/kaspersky-hexa-ui-icons/src/iconsSVGs/48/QrScanner.svg

<svg width="48" height="48" viewBox="0 0 48 48" fill="none" xmlns="http://www.w3.org/2000/svg">
<path d="M4.27574 13.0198C4.82803 13.0198 5.27574 12.572 5.27574 12.0198V6.23242C5.27574 5.68014 5.72346 5.23242 6.27574 5.23242H12.4775C13.0298 5.23242 13.4775 4.78471 13.4775 4.23242C13.4775 3.68014 13.0298 3.23242 12.4775 3.23242H6.27574C4.61889 3.23242 3.27574 4.57557 3.27574 6.23242V12.0198C3.27574 12.572 3.72346 13.0198 4.27574 13.0198Z" fill="black"/>
<path d="M44.2201 13.0198C44.7724 13.0198 45.2201 12.572 45.2201 12.0198V6.23242C45.2201 4.57557 43.8769 3.23242 42.2201 3.23242H36.0189C35.4666 3.23242 35.0189 3.68014 35.0189 4.23242C35.0189 4.78471 35.4666 5.23242 36.0189 5.23242H42.2201C42.7724 5.23242 43.2201 5.68014 43.2201 6.23242V12.0198C43.2201 12.572 43.6678 13.0198 44.2201 13.0198Z" fill="black"/>
<path d="M13.1773 9.92944C11.5205 9.92944 10.1773 11.2726 10.1773 12.9294V22.057C10.1773 22.6093 10.625 23.057 11.1773 23.057C11.7296 23.057 12.1773 22.6093 12.1773 22.057V12.9294C12.1773 12.3772 12.625 11.9294 13.1773 11.9294H35.3183C35.8706 11.9294 36.3183 12.3772 36.3183 12.9294V22.057C36.3183 22.6093 36.766 23.057 37.3183 23.057C37.8706 23.057 38.3183 22.6093 38.3183 22.057V12.9294C38.3183 11.2726 36.9752 9.92944 35.3183 9.92944H13.1773Z" fill="black"/>
<path fill-rule="evenodd" clip-rule="evenodd" d="M10.1773 27.6587H5.82649C5.27421 27.6587 4.82649 27.211 4.82649 26.6587C4.82649 26.1065 5.27421 25.6587 5.82649 25.6587H42.6692C43.2215 25.6587 43.6692 26.1065 43.6692 26.6587C43.6692 27.211 43.2215 27.6587 42.6692 27.6587H38.3183V35.0705C38.3183 36.7273 36.9752 38.0705 35.3183 38.0705H13.1773C11.5205 38.0705 10.1773 36.7273 10.1773 35.0705V27.6587ZM12.1773 27.6587V35.0705C12.1773 35.6227 12.625 36.0705 13.1773 36.0705H35.3183C35.8706 36.0705 36.3183 35.6227 36.3183 35.0705V27.6587H12.1773Z" fill="black"/>
<path d="M5.27567 35.9802C5.27567 35.4279 4.82795 34.9802 4.27567 34.9802C3.72338 34.9802 3.27567 35.4279 3.27567 35.9802V41.7676C3.27567 43.4244 4.61881 44.7676 6.27566 44.7676H12.4775C13.0297 44.7676 13.4775 44.3198 13.4775 43.7676C13.4775 43.2153 13.0297 42.7676 12.4775 42.7676H6.27566C5.72338 42.7676 5.27567 42.3198 5.27567 41.7676V35.9802Z" fill="black"/>
<path d="M45.22 35.9802C45.22 35.4279 44.7723 34.9802 44.22 34.9802C43.6677 34.9802 43.22 35.4279 43.22 35.9802V41.7676C43.22 42.3198 42.7723 42.7676 42.22 42.7676H36.0189C35.4666 42.7676 35.0189 43.2153 35.0189 43.7676C35.0189 44.3198 35.4666 44.7676 36.0189 44.7676H42.22C43.8769 44.7676 45.22 43.4244 45.22 41.7676V35.9802Z" fill="black"/>
</svg>

<svg xmlns="http://www.w3.org/2000/svg" width="48" height="48" fill="none" viewBox="0 0 48 48"><path fill="#000" d="M4.276 13.02c.552 0 1-.448 1-1V6.232c0-.552.448-1 1-1h6.202c.552 0 1-.448 1-1s-.448-1-1-1H6.276c-1.657 0-3 1.343-3 3v5.787c0 .552.448 1 1 1m39.944.001c.552 0 1-.448 1-1V6.232c0-1.657-1.343-3-3-3h-6.201c-.552 0-1 .448-1 1s.448 1 1 1h6.201c.552 0 1 .448 1 1v5.787c0 .552.448 1 1 1m-31.043-3.09c-1.657 0-3 1.343-3 3v9.128c0 .552.448 1 1 1s1-.448 1-1v-9.128c0-.552.448-1 1-1h22.141c.552 0 1 .448 1 1v9.128c0 .552.448 1 1 1s1-.448 1-1v-9.128c0-1.657-1.343-3-3-3z"/><path fill="#000" fill-rule="evenodd" d="M10.1773 27.6587H5.8265c-.5523 0-1-.4477-1-1s.4477-1 1-1h36.8427c.5523 0 1 .4478 1 1s-.4477 1-1 1h-4.3509v7.4118c0 1.6568-1.3431 3-3 3h-22.141c-1.6568 0-3-1.3432-3-3zm2 0v7.4118c0 .5522.4477 1 1 1h22.141c.5523 0 1-.4478 1-1v-7.4118z" clip-rule="evenodd"/><path fill="#000" d="M5.276 35.98c0-.552-.448-1-1-1s-1 .448-1 1v5.787c0 1.657 1.343 3 3 3h6.202c.552 0 1-.448 1-1s-.448-1-1-1H6.276c-.552 0-1-.448-1-1zm39.944 0c0-.552-.448-1-1-1s-1 .448-1 1v5.787c0 .552-.448 1-1 1h-6.201c-.552 0-1 .448-1 1s.448 1 1 1h6.201c1.657 0 3-1.343 3-3z"/></svg>
